X:1
T:Ved Afslöringen af Karl Johans Monumentet, 7/9 1875
T:Ved Afslöringen af Karl Johans Monumentet, 7/9 1875
T:Reissiger
C:Reissiger
%%score [ 1 2 3 4 ]
L:1/8
Q:1/4=92
M:4/4
K:F
V:1 treble-8 nm="T1"
V:2 treble-8 nm="T2"
V:3 bass nm="B1"
V:4 bass nm="B2"
V:1
"^Andantino" z2!f! F2 A3 B | c6 F2 | !>!d2 !>!c2 !>!B2 !>!A2 | !>!c4!>(! B2 d2!>)! | d2 G4 A2 | %5
w: Den sto- re|Kon- ge|dra- ger nu til|Mö- de i|Aa- syn til|
 B2 (cd) e2 d2 | (c2 f4) (dB) | G6 z2 | z2!mf! F2 A3 B | c6 F2 |!<(! d2 d2!<)! g3 f | %11
w: Aa- syn _ med sit|Klip- * pe- *|folk.|Naar Dæk- ket|fal- der,|vo- re Hjer- ter|
!>(! f4 e2!>)! d2 | c2 f2!<(! e2 a2!<)! | !>!g6 f2 |!<(! (e2 f4)!<)! =B2 | c4 z2!f! c2 | %16
w: glö- de, thi|Mö- det er hans|stör- ste|Sei- * ers|Tolk. Hans|
 !>!d6 !>!g2 | !>!g6 c2 | c2 f2 e2 =B2 |!<(! c2 d4!<)!!mf! c2 | c2 f2!<(! e2 f2!<)! | %21
w: Klin- ges|Lyn har|Fien- den kyst paa|Va- len, naar|frem hans Strids- hingst|
!>(! g3 f!>)! e2 e2 |!<(! e8- | e6!<)! z2 | z2!p! F2 A3 B | c6!<(! f2 | a3!<)! g!>(! f2 e2!>)! | %27
w: spreng- te let og|stærk.|_|Nu hol- der|mild og|stil- le han for|
 !>!e4 d2!f! g2 | !>!g6 c2 | !>!c2 !>!f2"^riten." !>!d2 (!>!ag) | !>!f4 !>!e4 | !>!f6 z2 |] %32
w: Da- len; nu|hil- ser|han sin Freds- daads _|Kjæm- pe-|værk.|
V:2
 z2!f! F2 A3 B | c6 F2 | !>!d2 !>!c2 !>!B2 !>!A2 | !>!c4!>(! B2 d2!>)! | d2 G4 A2 | B2 (cd) e2 d2 | %6
w: Den sto- re|Kon- ge|dra- ger nu til|Mö- de i|Aa- syn til|Aa- syn _ med sit|
 (c2 ^c2 d2) (dB) | E6 z2 | z2!mf! F2 A3 B | c6 F2 |!<(! d2 d2!<)! d3 _d |!>(! c4 c2!>)! B2 | %12
w: Klip- * * pe- *|folk.|Naar Dæk- ket|fal- der,|vo- re Hjer- ter|glö- de, thi|
 A2 =B2!<(! c2 c2!<)! | (!>!c2 !>!^c2 !>!d2) d2 |!<(! (c2 =B4)!<)! G2 | G4 z2!f! c2 | %16
w: Mö- det er hans|stör- * * ste|Sei- * ers|Tolk. Hans|
 (!>!c4 B2) !>![B_d]2 | !>![Bc]6 B2 | A2 c2 =B2 ^G2 |!<(! A2 _B4!<)!!mf! B2 | A2 A2!<(! B2 A2!<)! | %21
w: Klin- * ges|Lyn har|Fien- den kyst paa|Va- len, naar|frem hans Strids- hingst|
!>(! d3 d!>)! d2 d2 |!<(! (^c4 =c4- | c6)!<)! z2 | z2!p! F2 A3 B | c6!<(! c2 | %26
w: spreng- te let og|stærk. _|_|Nu hol- der|mild og|
 ^c3!<)! e!>(! d2 c2!>)! | !>!^c4 d2!f!!f! [B_d]2 | !>![Bc]6 B2 | !>!A2 !>!c2 !>!B2 !>!d2 | %30
w: stil- le han for|Da- len; nu|hil- ser|han sin Freds- daads|
 !>!c4 !>!c4 | !>!c6 z2 |] %32
w: Kjæm- pe-|værk.|
V:3
 z2!f! F,2 A,3 B, | C6 F,2 | !>!D2 !>!C2 !>!B,2 !>!A,2 | !>!C4!>(! B,2 B,2!>)! | B,2 E,4 F,2 | %5
w: Den sto- re|Kon- ge|dra- ger nu til|Mö- de i|Aa- syn til|
 G,2 (A,B,) C2 B,2 | (A,4 B,2) (B,G,) | E,6 z2 | z2!mf! F,2 A,3 B, | C6 F,2 | %10
w: Aa- syn _ med sit|Klip- * pe- *|folk.|Naar Dæk- ket|fal- der,|
!<(! D2 C2!<)! B,3 B, |!>(! G,4 G,2!>)! (F,G,) | A,2 G,2!<(! G,2 F,2!<)! | %13
w: vo- re Hjer- ter|glö- de, thi _|Mö- det er hans|
 (!>!G,2 !>!B,2 !>!A,2) A,2 |!<(! (G,2 D,4)!<)! F,2 | E,4 z2!f! C2 | (!>!A,4 G,2) !>!G,2 | %17
w: stör- * * ste|Sei- * ers|Tolk. Hans|Klin- * ges|
 !>!G,6 G,2 | F,2 A,2 ^G,2 E,2 |!<(! E,2 F,4!<)!!mf! E,2 | F,2 F,2!<(! G,2 F,2!<)! | %21
w: Lyn har|Fien- den kyst paa|Va- len, naar|frem hans Strids- hingst|
!>(! B,3 F,!>)! G,2 ^G,2 |!<(! (A,4 [=G,B,]4- | [G,B,]6)!<)! z2 | z2!p! F,2 A,3 B, | C6!<(! A,2 | %26
w: spreng- te let og|stærk. _|_|Nu hol- der|mild og|
 A,3!<)! A,!>(! A,2 G,2!>)! | !>!G,4 F,2!f! F,2 | !>!E,6 G,2 | !>!F,2 !>!F,2 !>!F,2 !>!B,2 | %30
w: stil- le han for|Da- len; nu|hil- ser|han sin Freds- daads|
 !>!A,4 (!>!G,2 B,2) | !>!A,6 z2 |] %32
w: Kjæm- pe- *|værk.|
V:4
 z2!f! F,2 A,3 B, | C6 F,2 | !>!D2 !>!C2 !>!B,2 !>!A,2 | !>!C4!>(! B,2 B,2!>)! | B,2 E,4 F,2 | %5
w: Den sto- re|Kon- ge|dra- ger nu til|Mö- de i|Aa- syn til|
 G,2 (A,B,) C2 B,2 | (A,4 B,2) B,,2 | C,6 z2 | z2!mf! F,2 A,3 B, | C6 F,2 | %10
w: Aa- syn _ med sit|Klip- * pe-|folk.|Naar Dæk- ket|fal- der,|
!<(! B,2 A,2!<)! G,3 G, |!>(! C,4 C,2!>)! (D,E,) | F,2 D,2!<(! C,2 F,2!<)! | (!>!E,4 !>!F,2) F,2 | %14
w: vo- re Hjer- ter|glö- de, thi _|Mö- det er hans|stör- * ste|
!<(! (G,2 G,,4)!<)! G,,2 | C,4 z2!f! C2 | (!>!^F,4 G,2) !>!=F,2 | !>!E,6 E,2 | F,2 D,2 E,2 E,2 | %19
w: Sei- * ers|Tolk. Hans|Klin- * ges|Lyn har|Fien- den kyst paa|
!<(! A,,2 G,,4!<)!!mf! C,2 | F,2 D,2!<(! ^C,2 D,2!<)! |!>(! B,,3 B,,!>)! B,,2 B,,2 | %22
w: Va- len, naar|frem hans Strids- hingst|spreng- te let og|
!<(! (A,,4 =C,4- | C,6)!<)! z2 | z2!p! F,2 A,3 B, | C6!<(! F,2 | E,3!<)! A,,!>(! A,,2 A,,2!>)! | %27
w: stærk. _|_|Nu hol- der|mild og|stil- le han for|
 !>!B,,4 B,,2!f! G,,2 | !>!C,6 E,2 | !>!F,2 !>!A,,2 !>!B,,2 !>!B,,2 | !>!C,4 !>!C,4 | !>!F,6 z2 |] %32
w: Da- len; nu|hil- ser|han sin Freds- daads|Kjæm- pe-|værk.|

